!!!OTL: Young Indian Lass
!!!ONM: 51.
**kern
*clefG2
*k[b-]
*F:
*M4/4
*MM112
{4c
=1
(4c
4g)
4g
4a
=2
(4g
4e)
4d}
{4c
=3
(4c
4g)
4.g
8a
=4
2.g}
{4c
=5
4c
4g
4g
4cc
=6
(4cc
4a)
4g
4g}
=7
{4g
4cc
4.cc
8dd
=8
2.cc}
{4c
=9
(4c
4g)
4.g
8e
=10
4.e
8d
4g}
{4c
=11
4.c
8g
4.g
8a
=12
2.g}
{8f
8g
=13
4a
4f
4d
4f
=14
(4d
4c)
4A}
{4c
=15
2f
4.f
8g
=16
2.f}
==
*-
!!!CNT: Folksongs of Maritime Canada
!!!MRD: 1928///-1932///
!!!OCL: Helen Creighton
!!!YOR: Songs and Ballads from Nova Scotia
!!!PPR: J.M. Dent & Sons, Limited
!!!PPP: Toronto, Canada
!!!PDT: 1932///
!!!reprint: Dover Publications, 1992: ISBN 0-486-21703-5
!!!ENC1: Craig Stuart Sapp (music and bibliographic data)                       
!!!ENC2: Marcus Pearce (phrase markings and key designations)                   
!!!ENC3: Darrell Conklin (phrase markings and key designations)   
!!!END: 2002/04/10/
!!!EEV: 2004/06/05
!!!MPN: Mr. Richard Hartlan
!!!PPG: 103
!!!EFL: 52/152
!!!ARE: Canada; Nova Scotia
!!!verses: 5
!!!VTS: 183820291
